brandFactory_export/1.Light/Parking _1Light.svg

<?xml version="1.0" encoding="UTF-8"?>
<svg width="24px" height="24px" viewBox="0 0 24 24" version="1.1" xmlns="http://www.w3.org/2000/svg" xmlns:xlink="http://www.w3.org/1999/xlink">
    <title>1.Light/Parking _1Light</title>
    <g id="Symbols" stroke="none" stroke-width="1" fill="none" fill-rule="evenodd">
        <g id="1.Light/Parking-_1Light" fill="#5CB615" fill-rule="nonzero">
            <path d="M18.7815126,1.9697479 C20.0823529,3.2 20.7478992,5.1092437 20.7277311,7.64033613 C20.8655462,9.73781513 20.2201681,11.8151261 18.9193277,13.4655462 C18.1798319,14.292437 17.2352941,14.9109244 16.1798319,15.2571429 C14.912605,15.6504202 13.5915966,15.8352941 12.2672269,15.8084034 L9.13781513,15.8084034 L9.13781513,23.1294118 C9.13781513,23.4016807 8.91932773,23.6201681 8.64705882,23.6201681 L3.51764706,23.6201681 C3.24537815,23.6201681 3.02689076,23.3983193 3.02689076,23.1294118 L3.02689076,0.497478992 C3.02689076,0.228571429 3.24537815,0.00672268908 3.51764706,0.00672268908 L11.2420168,0.00672268908 C12.7546218,-0.0235294118 14.2638655,0.124369748 15.7394958,0.450420168 C16.8689076,0.682352941 17.9176471,1.20672269 18.7815126,1.9697479 Z M18.2134454,12.7966387 C19.3462185,11.3210084 19.897479,9.48235294 19.7697479,7.6302521 C19.7697479,5.39495798 19.2117647,3.69411765 18.1159664,2.7092437 C17.3831933,2.0605042 16.4991597,1.61008403 15.5445378,1.40168067 C14.1327731,1.09579832 12.687395,0.957983193 11.2420168,0.988235294 L4.00504202,0.988235294 L4.00504202,22.6420168 L8.16302521,22.6420168 L8.16302521,15.307563 C8.16302521,15.0352941 8.38151261,14.8168067 8.65042017,14.8168067 L12.2672269,14.8168067 C13.4941176,14.8470588 14.7142857,14.6789916 15.8840336,14.3159664 C16.7848739,14.0235294 17.5882353,13.502521 18.2134454,12.7966387 Z M13.1008403,3.9394958 C13.6453782,4.04705882 14.1495798,4.29915966 14.5663866,4.66890756 C15.292437,5.50588235 15.6453782,6.60504202 15.5445378,7.71092437 C15.6319328,8.88403361 15.2487395,10.0470588 14.4789916,10.9378151 C14.1058824,11.3176471 13.6420168,11.5966387 13.1310924,11.7445378 C12.4890756,11.892437 11.8336134,11.9563025 11.1747899,11.9428571 L8.65042017,11.9428571 C8.37815126,11.9428571 8.15966387,11.7210084 8.16298694,11.4521008 L8.16298694,4.23529412 C8.16298694,3.96302521 8.38151261,3.74453782 8.65042017,3.74453782 L11.0470588,3.74453782 C11.7361345,3.73109244 12.4252101,3.79831933 13.1008403,3.9394958 L13.1008403,3.9394958 Z M13.7865546,10.2386555 C14.3579832,9.53613445 14.6336134,8.63865546 14.5596639,7.73781513 C14.6436975,6.90084034 14.3915966,6.06386555 13.8571429,5.41512605 C13.5815126,5.16638655 13.2420168,4.99495798 12.8789916,4.92436975 C12.2773109,4.79327731 11.6655462,4.72605042 11.0504202,4.72605042 L9.14453782,4.72605042 L9.14453782,10.9579832 L11.1344538,10.9579832 C11.7159664,10.9747899 12.297479,10.9210084 12.8655462,10.789916 C13.2184874,10.692437 13.5344538,10.5008403 13.7865546,10.2386555 Z" id="Parking-_1Light"></path>
        </g>
    </g>
</svg>

<svg width="24" height="24" viewBox="0 0 24 24" xmlns="http://www.w3.org/2000/svg"><path d="M18.782 1.97c1.3 1.23 1.966 3.14 1.946 5.67a8.514 8.514 0 01-1.809 5.826 6.317 6.317 0 01-2.74 1.791 12.352 12.352 0 01-3.912.551h-3.13v7.321a.49.49 0 01-.49.491h-5.13a.491.491 0 01-.49-.49V.496c0-.268.218-.49.49-.49h7.725c1.513-.03 3.022.117 4.497.443a6.602 6.602 0 013.043 1.52zm-.569 10.827A7.624 7.624 0 0019.77 7.63c0-2.235-.558-3.936-1.654-4.92a5.719 5.719 0 00-2.571-1.308 18.498 18.498 0 00-4.303-.414H4.005v21.654h4.158v-7.334c0-.273.219-.491.487-.491h3.617c1.227.03 2.447-.138 3.617-.501a5.282 5.282 0 002.33-1.52zm-5.112-8.858c.544.108 1.049.36 1.465.73a4.077 4.077 0 01.979 3.042 4.435 4.435 0 01-1.066 3.227 3.1 3.1 0 01-1.348.807 7.975 7.975 0 01-1.956.198H8.65a.486.486 0 01-.487-.49V4.234c0-.272.219-.49.487-.49h2.397a9.17 9.17 0 012.054.194zm.686 6.3a3.51 3.51 0 00.773-2.501 3.157 3.157 0 00-.703-2.323 2.05 2.05 0 00-.978-.49 8.582 8.582 0 00-1.829-.199H9.145v6.232h1.99a6.818 6.818 0 001.73-.168c.353-.098.67-.29.922-.551z" fill="#5CB615" fill-rule="nonzero"/></svg>
